X:1
T:The first Nowell
T:The first Nowell
T:Harm: John Stainer (1840-1901)
T:Fra Cornwall
C:Harm: John Stainer (1840-1901)
Z:Fra Cornwall
%%score [ 1 2 3 4 ]
L:1/8
M:3/4
K:C
V:1 treble nm="Soprano"
V:2 treble nm="Alto"
V:3 treble-8 nm="Tenor"
V:4 bass nm="Bass"
V:1
 (ED) | C3 D EF | G4 (AB) | c2 B2 A2 | G4 A B | c2 B2 A2 | G2 A2 B2 | c2 G2 F2 | E4 (ED) | %9
w: 1.The _|first _ No- *|well the _|an- gel did|say was to|cer- tain poor|shep- herds in|fields as they|lay; in _|
 C3 D (EF) | G4 (AB) | c2 B2 A2 | G4 A B | c2 B2 A2 | G2 A2 B2 | (c2 G2) F2 | E4 (ED) | %17
w: fields _ where _|they lay _|keep- ing their|sheep, on a|cold win- ter's|night _ that|was _ so|deep. No- *|
 (C3 D) (EF) | G4 cB | A4 A2 | G6 | c2 B2 A2 | (G2 A2) B2 | (c2 G2) F2 | E4 |] %25
w: well, _ No- *|well, No- *|well, No-|well,|born is the|King _ of|Is- * ra-|el.|
V:2
 C2 | B,4 C2 | D4 D2 | G2 G2 F2 | E4 C D | G2 E2 F2 | G2 C2 F2 | E2 E2 D2 | C4 B,2 | G,4 C2 | %10
w: 1.The|first No-|well the|an- gel did|say was to|cer- tain poor|shep- herds in|fields as they|lay; in|fields where|
 G,4 C2 | G2 G2 F2 | E4 C D | G2 E2 F2 | G2 F2 F2 | E4 D2 | C4 B,2 | G,4 C2 | B,4 E2 | F4 F2 | %20
w: they lay|keep- ing their|sheep, on a|cold win- ter's|night _ that|was so|deep. No-|well, No-|well, No-|well, No-|
 (E4 G2) | E2 E2 F2 | E4 F2 | E4 D2 | C4 |] %25
w: well, _|born is the|King of|Is- ra-|el.|
V:3
 (GF) | E4 c2 | B4 A2 | G2 G2 (AB) | c4 A G | G2 G2 B2 | c2 A2 F2 | G2 c2 G2 | G4 (GF) | E4 c2 | %10
w: 1.The _|first No-|well the|an- gel did _|say was to|cer- tain poor|shep- herds in|fields as they|lay; in _|fields where|
 (c2 B2) A2 | G2 G2 AB | c4 A G | G2 G2 B2 | c4 d2 | (G2 c2) G2 | G4 (GF) | E4 A2 | G4 G2 | %19
w: they _ lay|keep- ing their _|sheep, on a|cold win- ter's|night that|was _ so|deep. No- *|well, No-|well, No-|
 (A3 B) (cd) | (e4 d2) | c2 c2 c2 | c4 F2 | G4 G2 | G4 |] %25
w: well, * No- *|well, _|born is the|King of|Is- ra-|el.|
V:4
 C,2 | C,4 A,,2 | (G,,2 G,2) F,2 | E,2 E,2 F,2 | C,4 F, F, | E,2 C,2 D,2 | E,2 F,2 D,2 | %7
w: 1.The|first No-|well _ the|an- gel did|say was to|cer- tain poor|shep- herds in|
 (E,F,) G,2 G,2 | C,4 G,,2 | C,4 A,,2 | (G,,2 G,2) F,2 | E,2 E,2 F,2 | C,4 F, F, | E,2 C,2 D,2 | %14
w: fields _ as they|lay; in|fields where|they _ lay|keep- ing their|sheep, on a|cold win- ter's|
 E,2 F,2 D,2 | (E,F, G,2) G,,2 | C,4 G,,2 | C,4 A,,2 | E,4 C,2 | (F,3 G,) (A,B,) | (C4 B,2) | %21
w: night _ that|was _ _ so|deep. No-|well, No-|well, No-|well, * No- *|well, _|
 A,2 G,2 F,2 | (C2 C,2) D,2 | (E,F, G,2) G,,2 | C,4 |] %25
w: born is the|King _ of|Is- * * ra-|el.|

